assets/images/icons/src/cab.svg

<?xml version="1.0" encoding="utf-8"?>
<!-- Generated by IcoMoon.io -->
<!DOCTYPE svg PUBLIC "-//W3C//DTD SVG 1.1//EN" "http://www.w3.org/Graphics/SVG/1.1/DTD/svg11.dtd">
<svg version="1.1" xmlns="http://www.w3.org/2000/svg" xmlns:xlink="http://www.w3.org/1999/xlink" width="16" height="14" viewBox="0 0 16 14">
<path fill="#444444" d="M14.25 7q0.727 0 1.238 0.512t0.512 1.238v3q0 0.109-0.070 0.18t-0.18 0.070h-0.75v0.5q0 0.625-0.438 1.062t-1.062 0.438-1.062-0.438-0.438-1.062v-0.5h-8v0.5q0 0.625-0.438 1.062t-1.062 0.438-1.062-0.438-0.438-1.062v-0.5h-0.75q-0.109 0-0.18-0.070t-0.070-0.18v-3q0-0.727 0.512-1.238t1.238-0.512h0.219l0.82-3.273q0.18-0.734 0.813-1.23t1.398-0.496h1v-1.75q0-0.109 0.070-0.18t0.18-0.070h3.5q0.109 0 0.18 0.070t0.070 0.18v1.75h1q0.766 0 1.398 0.496t0.813 1.23l0.82 3.273h0.219zM2.5 10.75q0.516 0 0.883-0.367t0.367-0.883-0.367-0.883-0.883-0.367-0.883 0.367-0.367 0.883 0.367 0.883 0.883 0.367zM4.031 7h7.937l-0.695-2.789q-0.016-0.062-0.109-0.137t-0.164-0.074h-6q-0.070 0-0.164 0.074t-0.109 0.137zM13.5 10.75q0.516 0 0.883-0.367t0.367-0.883-0.367-0.883-0.883-0.367-0.883 0.367-0.367 0.883 0.367 0.883 0.883 0.367z"></path>
</svg>

<svg xmlns="http://www.w3.org/2000/svg" width="16" height="14" viewBox="0 0 16 14"><path fill="#444" d="M14.25 7q.727 0 1.238.512T16 8.75v3q0 .109-.07.18t-.18.07H15v.5q0 .625-.438 1.062T13.5 14t-1.062-.438T12 12.5V12H4v.5q0 .625-.438 1.062T2.5 14t-1.062-.438T1 12.5V12H.25q-.109 0-.18-.07T0 11.75v-3q0-.727.512-1.238T1.75 7h.219l.82-3.273q.18-.734.813-1.23T5 2.001h1V.251q0-.109.07-.18t.18-.07h3.5q.109 0 .18.07t.07.18v1.75h1q.766 0 1.398.496t.813 1.23L14.031 7h.219zM2.5 10.75q.516 0 .883-.367T3.75 9.5t-.367-.883T2.5 8.25t-.883.367-.367.883.367.883.883.367zM4.031 7h7.937l-.695-2.789q-.016-.062-.109-.137T11 4H5q-.07 0-.164.074t-.109.137zm9.469 3.75q.516 0 .883-.367t.367-.883-.367-.883-.883-.367-.883.367-.367.883.367.883.883.367z"/></svg>
